assets/features/global-acquiring/googlePay.svg

<svg width="20" height="20" viewBox="0 0 20 20" fill="none" xmlns="http://www.w3.org/2000/svg">
<rect width="20" height="20" rx="4" fill="white"/>
<path d="M15 10.0875C15 9.71683 14.9666 9.3621 14.9046 9.021H10.1063V10.9752L12.8698 10.9758C12.7577 11.6261 12.397 12.1804 11.8443 12.5499V13.8178H13.4892C14.4497 12.9348 15 11.6296 15 10.0875Z" fill="#4285F4"/>
<path d="M11.8449 12.5502C11.387 12.857 10.7974 13.0364 10.1075 13.0364C8.77502 13.0364 7.6446 12.1445 7.23978 10.9424H5.54297V12.25C6.38362 13.9069 8.11144 15.0439 10.1075 15.0439C11.4872 15.0439 12.6462 14.5933 13.4898 13.8175L11.8449 12.5502Z" fill="#34A853"/>
<path d="M7.08017 9.97252C7.08017 9.63496 7.13681 9.30866 7.23996 9.00191V7.69434H5.54315C5.19556 8.37951 5 9.15292 5 9.97252C5 10.7921 5.19615 11.5655 5.54315 12.2507L7.23996 10.9431C7.13681 10.6364 7.08017 10.3101 7.08017 9.97252Z" fill="#FABB05"/>
<path d="M10.1075 6.90745C10.8606 6.90745 11.5349 7.16505 12.0673 7.66842L13.525 6.22169C12.6396 5.40268 11.4854 4.8999 10.1075 4.8999C8.11203 4.8999 6.38362 6.03692 5.54297 7.69389L7.23978 9.00146C7.64461 7.7993 8.77502 6.90745 10.1075 6.90745Z" fill="#E94235"/>
</svg>

<svg xmlns="http://www.w3.org/2000/svg" width="20" height="20" fill="none" viewBox="0 0 20 20"><rect width="20" height="20" fill="#fff" rx="4"/><path fill="#4285f4" d="M15 10.088q-.001-.556-.095-1.067h-4.799v1.954h2.764a2.35 2.35 0 0 1-1.026 1.575v1.268h1.645c.96-.883 1.511-2.188 1.511-3.73"/><path fill="#34a853" d="M11.845 12.55c-.458.307-1.048.486-1.738.486-1.332 0-2.462-.891-2.867-2.094H5.543v1.308a5.11 5.11 0 0 0 4.565 2.794c1.38 0 2.538-.45 3.382-1.226z"/><path fill="#fabb05" d="M7.08 9.973c0-.338.057-.664.16-.971V7.694H5.543A5 5 0 0 0 5 9.973c0 .82.196 1.592.543 2.278l1.697-1.308a3 3 0 0 1-.16-.97"/><path fill="#e94235" d="M10.108 6.907c.753 0 1.427.258 1.96.761l1.457-1.446c-.885-.82-2.04-1.322-3.418-1.322a5.11 5.11 0 0 0-4.564 2.794L7.24 9c.405-1.202 1.535-2.094 2.867-2.094"/></svg>
